src/topics/icons/angular-icon.svg

<svg height="272" preserveAspectRatio="xMidYMid" viewBox="0 0 256 272" width="256" xmlns="http://www.w3.org/2000/svg"><path d="m.09961089 45.522179 125.80856011-44.82490273 129.195331 44.02801553-20.918288 166.4498052-108.277043 59.965759-106.5836574-59.168872z" fill="#e23237"/><path d="m255.103502 44.7252918-129.195331-44.02801553v270.44357973l108.277043-59.866148z" fill="#b52e31"/><path d="m126.107393 32.27393-78.3937743 174.418677 29.2856031-.498054 15.7385214-39.346304h33.4692608.099611 36.75642l17.232685 39.844358 27.990661.498054zm.199222 55.881712 26.496498 55.383658h-25.400778-1.294942-23.109728z" fill="#fff"/></svg>

<?xml version="1.0" encoding="UTF-8" standalone="no"?>
<svg width="256px" height="272px" viewBox="0 0 256 272" version="1.1" xmlns="http://www.w3.org/2000/svg" xmlns:xlink="http://www.w3.org/1999/xlink" preserveAspectRatio="xMidYMid">
	<g>
		<path d="M0.0996108949,45.522179 L125.908171,0.697276265 L255.103502,44.7252918 L234.185214,211.175097 L125.908171,271.140856 L19.3245136,211.971984 L0.0996108949,45.522179 Z" fill="#E23237"></path>
		<path d="M255.103502,44.7252918 L125.908171,0.697276265 L125.908171,271.140856 L234.185214,211.274708 L255.103502,44.7252918 L255.103502,44.7252918 Z" fill="#B52E31"></path>
		<path d="M126.107393,32.27393 L126.107393,32.27393 L47.7136187,206.692607 L76.9992218,206.194553 L92.7377432,166.848249 L126.207004,166.848249 L126.306615,166.848249 L163.063035,166.848249 L180.29572,206.692607 L208.286381,207.190661 L126.107393,32.27393 L126.107393,32.27393 Z M126.306615,88.155642 L152.803113,143.5393 L127.402335,143.5393 L126.107393,143.5393 L102.997665,143.5393 L126.306615,88.155642 L126.306615,88.155642 Z" fill="#FFFFFF"></path>
	</g>
</svg>
